X:1
T:Title
%%score { ( 1 2 ) | ( 3 4 ) }
L:1/8
Q:1/4=104
M:4/4
K:Bb
V:1 treble nm="Grand Piano"
V:2 treble 
V:3 bass 
V:4 bass 
V:1
 [Fd]4 [=E_d]4 | [Fd]6 c>B | [DA]>c [DB]>G [DF]2 [DG]2 | [EA]6 z2 | [Ae]4 [_Ad]4 | [Ae]6 c>A | %6
w: Grant~Colfax~Tullar *||||||
 [EG]>F [_D=E]>[=DF] [_EG]2 [Ge]2 | [Fd]6 z2 | [Fd]4 [=E_d]4 | [Fd]6 d>c | %10
w: ||||
 [DB]>A B>d [Ff]2 [D_AB]2 | [Ge]6 z2 | [=EB]>[Ec] [EB]>[EA] [EB]2 [Ec]2 | [Fd]4 [DF]4 | %14
w: ||||
 [B,=EG]2 [EB]2 [Ec]2 [Ed]2 |[M:9/8] .c6 z3 |[M:4/4] [Fd]>_d [Ge]>=d [DF]2 [Fd]2 | [Gd]4 z4 | %18
w: ||||
 [FA]4 [EG]4 | [DF]6 z2 | [Fd]>_d [Ge]>=d [DB]2 [B,DF]2 | [EG]4 [Gc]2 [=Bd]>[ce] | B2 z2 c4 | %23
w: |||||
 [DB]6 z2 |] %24
w: |
V:2
 z2 [B,D]2 z2 [B,_D]2 | x8 | x8 | x8 | z2 [A,E]2 z2 [=B,D]2 | x8 | x8 | x8 | z2 [B,D]2 z2 [B,_D]2 | %9
 x8 | x8 | x8 | x8 | x8 | x8 |[M:9/8] F2- [CF-] [B,F-] [Fe]2- [Fe-]/e/ z z |[M:4/4] x8 | %17
 z2 [G,C]2 [CEGc]2 [Gc]>B | z2 F,2 G,2 A,2 | B,2 z2 z4 | x8 | x8 | d2- [DFd]2 F2 [A,CE]2 | %23
 B,2 z2 z4 |] %24
V:3
 B,,2 F,2 B,,2 G,2 | z z/ F,/ G,>A, B,2 E>D | z z/ D/ z z/ D/ F,,2 F,2 | C,>F, G,>F, C,>F, A,,>C, | %4
 F,,2 F,2 F,,2 F,2 | F,,>C, F,>A, C2 E>E | z z/ D/ G,>F, C,2 [F,,F,]2 | B,,>D, G,>F, B,>G, F,>D, | %8
 B,,2 F,2 B,,2 G,2 | z z/ F,/ G,>A, B,2[K:treble] F>E | z z/ D/ D>F D,2 B,2 | %11
 z z/ C/ B,>G, E2 E,2 | [G,_D]2 [G,D]2 [G,,G,]2 [^F,,^F,]2 | [F,,F,]>B,, D,>F, B,2 A,2 | %14
 G,2 [C,G,]2 [C,A,]2 [D,B,]2 |[M:9/8] [F,A,]2 A, G, [F,A,]2- [F,A,] z z | %16
[M:4/4] z z/ =E/ z z/ F/ B,,2 [F,B,]2 | z4 z2 [E,G,C]2 | F,2 F,,2 G,,2 A,,2 | %19
 B,,>D, F,>G, F,2 D,2 | z z/ =E/ z z/ F/ B,,2 F,2 | [E,,E,]2 [G,,G,]2 [E,,E,]2 [D,,D,]2 | %22
 [F,,F,]2 [F,B,]2 [F,,F,]2 F,2 | z z/ G,/ F,>D, B,,2 z2 |] %24
V:4
 x8 | B,,6 z2 | B,,2 F,2 z4 | x8 | x8 | x8 | F,,2 z2 z4 | x8 | x8 | B,,6[K:treble] z2 | %10
 B,,2 [F,B,]2 z4 | E,6 z2 | x8 | x8 | x8 |[M:9/8] x9 |[M:4/4] B,,2 [F,B,]2 z4 | %17
 E,,2 E,2 G,2 z z/ G/ | x8 | x8 | B,,2 [F,B,]2 z4 | x8 | x8 | B,,4 z4 |] %24

